X: 17727
T: Home Ruler, The
R: hornpipe
M: 4/4
K: Dmajor
|:A,B,|:D2FA DAFA|dfed BcdB|A3B AFDE|(3FED ED B,DA,B,|
D2FA DAFA|dfed BcdB|A3B AFEG|FA D2 D2:|
|:AB|d2 dc d2 (3ddd|adbd ad ~d2|efed BAFA|fded BdAB|
d2 dc d2 (3ddd|adbd ad ~d2|efed BAdB|AFEF D2:|

